X:1
T:Ten Thousand Cattle
M:3/4
L:1/8
K:G
 z2 z DE D| B2 B2 ED| B4 dc| A3 A B3.99999962500005/5.99999925000009 G3.99999962500005/5.99999925000009 E3.99999962500005/5.99999925000009|\
 D3D/2-D/2E/2-E/2 D| B3 DE D| B3 BA A| d B2 cA B| G4 z d| ec G3 e|\
 d2 B4| A2 AA AA| A4 d z| B G2 z2 z|
